X: 1
T: Mike Daly's
M: 6/8
L: 1/8
R: jig
K: Gmaj
d2c|:BGG DGG|BdB ~BAB|GBd gdB|~cBc Adc|
BGG DGG|BdB ~cAB|GBd edc|1 BGG Gdc:|2 BGG G2g||
|:bgb afa|~gfg edB|GBd ~gfg|eaa aga|
bgb aba|~gfg edB|GBd edc|1 BGG G2g:|2 BGG G3||
